X:24
T:Andante (1)
C:Fernando Sor
F:http://abc.musicaviva.com/tunes/sor-fernando/Sor_andante01.abc
V:1 program 1 24 up transpose -12
V:2 program 1 24 up merge transpose -12
V:3 program 1 24 down merge transpose -12
M:C
L:1/4
Q:1/4=124
K:C
V:1
cGce|gecG|Afdc|BdG2|cGce|gecG|Ad2B|c4|
V:2
x4|x4|x4|x4|x4|x4|x4|x4|
V:3
C4-|C3E|F4|G2zF|E4-|E3E|F2G2|CGEC|
%
V:1
d2e2|d4|d2e2|d4|B2c2|d2e2|BBcA|Gxx2|
V:2
zG2G|zGGG|zG2G|zGGG|zG2G|zG2G|x4|xGGG|
V:3
B,2C2|B,4|B,2C2|B,4|G,2A,2|B,2C2|D2D2|G,2z2|
%
V:1
g2e2|f2d2|e2c2|B4|g2e2|f2d2|e2c2|B4|
V:2
zG2G|zG2G|zG2G|zGGG|zG2G|zG2G|zG2G|zGFD|
V:3
E2C2|D2B,2|C2E2|D4|E2C2|D2B,2|C2A,2|G,4|
%
V:1
cGce|gecG|Afdc|BGAB|cGce|eAdf|ecdB|c2z2|
V:2
x4|x4|x4|x4|x4|x4|x4|z[EG]z2|]
V:3
C4|E4|F4|GzF2|E4|F4|G2G,2|C2Cz|]
W:
W:
W:  From Musica Viva - http://www.musicaviva.com
W:  the Internet center for free sheet music downloads.
